gtk-icons/Papirus-GTK/32x32/apps/cs-desktop.svg

<?xml version="1.0" encoding="UTF-8" standalone="no"?>
<!-- Created with Inkscape (http://www.inkscape.org/) -->

<svg
   xmlns:dc="http://purl.org/dc/elements/1.1/"
   xmlns:cc="http://creativecommons.org/ns#"
   xmlns:rdf="http://www.w3.org/1999/02/22-rdf-syntax-ns#"
   xmlns:svg="http://www.w3.org/2000/svg"
   xmlns="http://www.w3.org/2000/svg"
   xmlns:sodipodi="http://sodipodi.sourceforge.net/DTD/sodipodi-0.dtd"
   xmlns:inkscape="http://www.inkscape.org/namespaces/inkscape"
   width="32"
   height="32"
   viewBox="0 0 32 32.000001"
   id="svg4222"
   version="1.1"
   inkscape:version="0.91 r13725"
   sodipodi:docname="cs-desktop.svg">
  <defs
     id="defs4224" />
  <sodipodi:namedview
     id="base"
     pagecolor="#ffffff"
     bordercolor="#666666"
     borderopacity="1.0"
     inkscape:pageopacity="0.0"
     inkscape:pageshadow="2"
     inkscape:zoom="11.420324"
     inkscape:cx="-17.060409"
     inkscape:cy="17.609667"
     inkscape:document-units="px"
     inkscape:current-layer="layer1"
     showgrid="false"
     units="px"
     inkscape:window-width="1600"
     inkscape:window-height="846"
     inkscape:window-x="0"
     inkscape:window-y="30"
     inkscape:window-maximized="1" />
  <metadata
     id="metadata4227">
    <rdf:RDF>
      <cc:Work
         rdf:about="">
        <dc:format>image/svg+xml</dc:format>
        <dc:type
           rdf:resource="http://purl.org/dc/dcmitype/StillImage" />
        <dc:title />
      </cc:Work>
    </rdf:RDF>
  </metadata>
  <g
     inkscape:label="Layer 1"
     inkscape:groupmode="layer"
     id="layer1"
     transform="translate(0,-1020.3622)">
    <path
       style="fill:#4ab3e4;fill-opacity:1;stroke:none"
       d="m 2,1027.14 0,20.8333 c 0,0.7695 0.6244,1.3889 1.4,1.3889 l 25.2,0 c 0.7756,0 1.4,-0.6194 1.4,-1.3889 l 0,-20.8333 z"
       id="rect4203"
       inkscape:connector-curvature="0"
       sodipodi:nodetypes="csssscc" />
    <path
       style="fill:#4d4d4d;fill-opacity:1;stroke:none"
       d="m 3.4,1024.3622 c -0.7756,0 -1.4,0.6194 -1.4,1.3889 l 0,1.6111 28,0 0,-1.6111 c 0,-0.7695 -0.6244,-1.3889 -1.4,-1.3889 z"
       id="rect3328"
       inkscape:connector-curvature="0"
       sodipodi:nodetypes="ssccsss" />
    <path
       style="fill:#ffffff;fill-opacity:1;stroke:none;opacity:0.1"
       d="M 3.4003906 4 C 2.6247906 4 2 4.6191719 2 5.3886719 L 2 6.3886719 C 2 5.6191719 2.6247906 5 3.4003906 5 L 28.599609 5 C 29.375209 5 30 5.6191719 30 6.3886719 L 30 5.3886719 C 30 4.6191719 29.375209 4 28.599609 4 L 3.4003906 4 z "
       transform="translate(0,1020.3622)"
       id="path4152" />
    <path
       inkscape:connector-curvature="0"
       style="opacity:1;fill:#4d4d4d;fill-opacity:1;stroke:none;stroke-width:3;stroke-linecap:round;stroke-linejoin:round;stroke-miterlimit:4;stroke-dasharray:none;stroke-opacity:1"
       d="m 9.5999999,1046.3622 c -0.8863998,0 -1.5999998,0.669 -1.5999998,1.5 l 0,1.5 15.9999999,0 0,-1.5 c 0,-0.831 -0.7136,-1.5 -1.6,-1.5 l -12.8000001,0 z"
       id="rect4155" />
    <path
       style="fill:#000000;fill-opacity:1;stroke:none;opacity:0.3"
       d="M 2 26.611328 L 2 27.611328 C 2 28.380828 2.6247906 29 3.4003906 29 L 28.599609 29 C 29.375209 29 30 28.380828 30 27.611328 L 30 26.611328 C 30 27.380828 29.375209 28 28.599609 28 L 3.4003906 28 C 2.6247906 28 2 27.380828 2 26.611328 z "
       transform="translate(0,1020.3622)"
       id="path4139" />
  </g>
</svg>

<?xml version="1.0" encoding="UTF-8" standalone="no"?>
<!-- Created with Inkscape (http://www.inkscape.org/) -->
<svg id="svg4222" xmlns:rdf="http://www.w3.org/1999/02/22-rdf-syntax-ns#" xmlns="http://www.w3.org/2000/svg" height="32" width="32" version="1.1" xmlns:cc="http://creativecommons.org/ns#" xmlns:dc="http://purl.org/dc/elements/1.1/" viewBox="0 0 32 32.000001">
 <metadata id="metadata4227">
  <rdf:RDF>
   <cc:Work rdf:about="">
    <dc:format>image/svg+xml</dc:format>
    <dc:type rdf:resource="http://purl.org/dc/dcmitype/StillImage"/>
    <dc:title/>
   </cc:Work>
  </rdf:RDF>
 </metadata>
 <g id="layer1" transform="translate(0 -1020.4)">
  <path id="rect4203" d="m2 1027.1v20.833c0 0.7695 0.6244 1.3889 1.4 1.3889h25.2c0.7756 0 1.4-0.6194 1.4-1.3889v-20.833z" fill="#4ab3e4"/>
  <path id="rect3328" d="m3.4 1024.4c-0.7756 0-1.4 0.6194-1.4 1.3889v1.6111h28v-1.6111c0-0.7695-0.6244-1.3889-1.4-1.3889z" fill="#4d4d4d"/>
  <path id="path4152" opacity=".1" d="m3.4004 4c-0.7756 0-1.4004 0.6192-1.4004 1.3887v1c0-0.7695 0.6248-1.3887 1.4004-1.3887h25.2c0.775 0 1.4 0.6192 1.4 1.3887v-1c0-0.7695-0.625-1.3887-1.4-1.3887h-25.2z" transform="translate(0 1020.4)" fill="#fff"/>
  <path id="rect4155" d="m9.6 1046.4c-0.8864 0-1.6 0.669-1.6 1.5v1.5h16v-1.5c0-0.831-0.7136-1.5-1.6-1.5h-12.8z" fill="#4d4d4d"/>
  <path id="path4139" opacity=".3" d="m2 26.611v1c0 0.77 0.6248 1.389 1.4004 1.389h25.2c0.775 0 1.4-0.619 1.4-1.389v-1c0 0.77-0.625 1.389-1.4 1.389h-25.2c-0.7752 0-1.4-0.619-1.4-1.389z" transform="translate(0 1020.4)"/>
 </g>
</svg>
